icons/svg/shopping/boat.svg

<?xml version="1.0" encoding="UTF-8" standalone="no"?>
<!-- Created with Inkscape (http://www.inkscape.org/) -->

<svg
   xmlns:dc="http://purl.org/dc/elements/1.1/"
   xmlns:cc="http://creativecommons.org/ns#"
   xmlns:rdf="http://www.w3.org/1999/02/22-rdf-syntax-ns#"
   xmlns:svg="http://www.w3.org/2000/svg"
   xmlns="http://www.w3.org/2000/svg"
   xmlns:sodipodi="http://sodipodi.sourceforge.net/DTD/sodipodi-0.dtd"
   xmlns:inkscape="http://www.inkscape.org/namespaces/inkscape"
   version="1.0"
   width="580"
   height="580"
   id="svg2"
   sodipodi:version="0.32"
   inkscape:version="0.91 r13725"
   sodipodi:docname="boat.svg"
   inkscape:output_extension="org.inkscape.output.svg.inkscape">
  <defs
     id="defs3263">
    <inkscape:perspective
       sodipodi:type="inkscape:persp3d"
       inkscape:vp_x="0 : 290 : 1"
       inkscape:vp_y="0 : 1000 : 0"
       inkscape:vp_z="580 : 290 : 1"
       inkscape:persp3d-origin="290 : 193.33333 : 1"
       id="perspective3265" />
  </defs>
  <metadata
     id="metadata2975">
    <rdf:RDF>
      <cc:Work
         rdf:about="">
        <dc:format>image/svg+xml</dc:format>
        <dc:type
           rdf:resource="http://purl.org/dc/dcmitype/StillImage" />
        <cc:license
           rdf:resource="http://web.resource.org/cc/PublicDomain" />
        <dc:language>en</dc:language>
        <dc:title />
      </cc:Work>
    </rdf:RDF>
  </metadata>
  <sodipodi:namedview
     inkscape:window-height="1006"
     inkscape:window-width="1920"
     inkscape:pageshadow="2"
     inkscape:pageopacity="0.0"
     guidetolerance="10.0"
     gridtolerance="10.0"
     objecttolerance="10.0"
     borderopacity="1.0"
     bordercolor="#666666"
     pagecolor="#ffffff"
     id="base"
     inkscape:zoom="0.92167712"
     inkscape:cx="258.39102"
     inkscape:cy="271.40521"
     inkscape:window-x="1920"
     inkscape:window-y="0"
     inkscape:current-layer="svg2"
     showgrid="false"
     inkscape:window-maximized="1" />
  <g
     id="g1327">
    <path
       d="M 66.275,1.768 C 24.94,1.768 1.704,23.139 1.704,66.804 L 1.704,516.927 C 1.704,557.771 22.599,579.156 63.896,579.156 L 515.92,579.156 C 557.227,579.156 578.149,558.841 578.149,516.927 L 578.149,66.804 C 578.149,24.203 557.227,1.768 514.628,1.768 C 514.624,1.768 66.133,1.625 66.275,1.768 z "
       style="fill:#111;stroke:#eee;stroke-width:3.40799999"
       id="path1329" />
  </g>
  <path
     style="color:#000000;display:inline;overflow:visible;visibility:visible;fill:#ffffff;fill-opacity:1;fill-rule:nonzero;stroke:none;marker:none;enable-background:accumulate"
     d="m 156.78288,448.67458 360.45963,0 c 0,0 -40.20654,56.42118 -75.55062,65.27768 -18.17334,4.55421 -40.1931,-14.41117 -58.90648,-14.80968 -17.86795,-0.38049 -40.11556,18.64097 -57.98189,18.19119 -20.47369,-0.51545 -45.65002,-21.22947 -64.6281,-20.96513 -23.107,0.3204 -36.21115,15.4493 -53.0982,16.67407 -19.02794,1.37975 -44.57276,-1.43062 -44.57276,-1.43062 z"
     id="path3007"
     inkscape:connector-curvature="0"
     sodipodi:nodetypes="ccssssscc" />
  <path
     style="fill:#ffffff;fill-opacity:1;stroke:none"
     d="m 281.22906,62.658375 0,368.165445 -218.471571,0 z"
     id="path3009"
     inkscape:connector-curvature="0" />
  <path
     style="color:#000000;display:inline;overflow:visible;visibility:visible;fill:#ffffff;fill-opacity:1;fill-rule:nonzero;stroke:none;marker:none;enable-background:accumulate"
     d="m 299.43501,133.45934 c 79.95419,67.48474 199.58149,305.26174 163.85362,293.31851 -73.62477,-24.61098 -165.87653,6.06895 -165.87653,6.06895 0,0 2.15851,-236.98754 2.02291,-299.38746 z"
     id="path3011"
     inkscape:connector-curvature="0"
     sodipodi:nodetypes="cscc" />
</svg>

<svg width="580" height="580" viewBox="0 0 580 580" fill="none" xmlns="http://www.w3.org/2000/svg">
<g clip-path="url(#clip0)">
<path d="M66.2751 1.76766C24.9401 1.76766 1.7041 23.1387 1.7041 66.8037V516.927C1.7041 557.771 22.5991 579.156 63.8961 579.156H515.92C557.227 579.156 578.149 558.841 578.149 516.927V66.8037C578.149 24.2027 557.227 1.76766 514.628 1.76766C514.624 1.76766 66.1331 1.62466 66.2751 1.76766Z" fill="#111111" stroke="#EEEEEE" stroke-width="3.408"/>
<path d="M156.783 448.675H517.242C517.242 448.675 477.036 505.096 441.692 513.952C423.518 518.507 401.499 499.541 382.785 499.143C364.917 498.762 342.67 517.784 324.803 517.334C304.33 516.819 279.153 496.105 260.175 496.369C237.068 496.689 223.964 511.818 207.077 513.043C188.049 514.423 162.504 511.612 162.504 511.612L156.783 448.675Z" fill="white"/>
<path d="M281.229 62.6582V430.824H62.7573L281.229 62.6582Z" fill="white"/>
<path d="M299.435 133.459C379.389 200.944 499.017 438.721 463.289 426.778C389.664 402.167 297.412 432.846 297.412 432.846C297.412 432.846 299.571 195.859 299.435 133.459V133.459Z" fill="white"/>
</g>
<defs>
<clipPath id="clip0">
<path d="M0 0H580V580H0V0Z" fill="white"/>
</clipPath>
</defs>
</svg>
